public/img/nav_home_active.svg

<svg width="20" height="20" viewBox="0 0 20 20" fill="none" xmlns="http://www.w3.org/2000/svg">
<path d="M10.8186 2.30333C10.5258 2.07562 10.3794 1.96177 10.2178 1.918C10.0752 1.87938 9.92484 1.87938 9.78221 1.918C9.62057 1.96177 9.47418 2.07562 9.18141 2.30333L3.52949 6.69927C3.15168 6.99312 2.96278 7.14005 2.82669 7.32405C2.70614 7.48704 2.61633 7.67065 2.56169 7.86588C2.5 8.08627 2.5 8.32558 2.5 8.80421V14.8333C2.5 15.7667 2.5 16.2335 2.68166 16.59C2.84144 16.9036 3.09641 17.1585 3.41002 17.3183C3.76654 17.5 4.23325 17.5 5.16667 17.5H6.83333C7.06669 17.5 7.18337 17.5 7.2725 17.4546C7.3509 17.4146 7.41464 17.3509 7.45459 17.2725C7.5 17.1834 7.5 17.0667 7.5 16.8333V11.3333C7.5 10.8666 7.5 10.6333 7.59083 10.455C7.67072 10.2982 7.79821 10.1707 7.95501 10.0908C8.13327 9.99999 8.36662 9.99999 8.83333 9.99999H11.1667C11.6334 9.99999 11.8667 9.99999 12.045 10.0908C12.2018 10.1707 12.3293 10.2982 12.4092 10.455C12.5 10.6333 12.5 10.8666 12.5 11.3333V16.8333C12.5 17.0667 12.5 17.1834 12.5454 17.2725C12.5854 17.3509 12.6491 17.4146 12.7275 17.4546C12.8166 17.5 12.9333 17.5 13.1667 17.5H14.8333C15.7668 17.5 16.2335 17.5 16.59 17.3183C16.9036 17.1585 17.1586 16.9036 17.3183 16.59C17.5 16.2335 17.5 15.7667 17.5 14.8333V8.80421C17.5 8.32558 17.5 8.08627 17.4383 7.86588C17.3837 7.67065 17.2939 7.48704 17.1733 7.32405C17.0372 7.14005 16.8483 6.99312 16.4705 6.69927L10.8186 2.30333Z" fill="#D4D6DD" stroke="#D4D6DD" stroke-width="2" stroke-linecap="round" stroke-linejoin="round"/>
<path d="M10.8186 2.30333C10.5258 2.07562 10.3794 1.96177 10.2178 1.918C10.0752 1.87938 9.92484 1.87938 9.78221 1.918C9.62057 1.96177 9.47418 2.07562 9.18141 2.30333L3.52949 6.69927C3.15168 6.99312 2.96278 7.14005 2.82669 7.32405C2.70614 7.48704 2.61633 7.67065 2.56169 7.86588C2.5 8.08627 2.5 8.32558 2.5 8.80421V14.8333C2.5 15.7667 2.5 16.2335 2.68166 16.59C2.84144 16.9036 3.09641 17.1585 3.41002 17.3183C3.76654 17.5 4.23325 17.5 5.16667 17.5H6.83333C7.06669 17.5 7.18337 17.5 7.2725 17.4546C7.3509 17.4146 7.41464 17.3509 7.45459 17.2725C7.5 17.1834 7.5 17.0667 7.5 16.8333V11.3333C7.5 10.8666 7.5 10.6333 7.59083 10.455C7.67072 10.2982 7.79821 10.1707 7.95501 10.0908C8.13327 9.99999 8.36662 9.99999 8.83333 9.99999H11.1667C11.6334 9.99999 11.8667 9.99999 12.045 10.0908C12.2018 10.1707 12.3293 10.2982 12.4092 10.455C12.5 10.6333 12.5 10.8666 12.5 11.3333V16.8333C12.5 17.0667 12.5 17.1834 12.5454 17.2725C12.5854 17.3509 12.6491 17.4146 12.7275 17.4546C12.8166 17.5 12.9333 17.5 13.1667 17.5H14.8333C15.7668 17.5 16.2335 17.5 16.59 17.3183C16.9036 17.1585 17.1586 16.9036 17.3183 16.59C17.5 16.2335 17.5 15.7667 17.5 14.8333V8.80421C17.5 8.32558 17.5 8.08627 17.4383 7.86588C17.3837 7.67065 17.2939 7.48704 17.1733 7.32405C17.0372 7.14005 16.8483 6.99312 16.4705 6.69927L10.8186 2.30333Z" fill="#FF9A00" stroke="#FF9A00" stroke-width="2" stroke-linecap="round" stroke-linejoin="round"/>
</svg>

<?xml version="1.0" encoding="UTF-8"?>
<svg id="Layer_1" xmlns="http://www.w3.org/2000/svg" version="1.1" viewBox="0 0 20 20">
  <!-- Generator: Adobe Illustrator 30.3.0, SVG Export Plug-In . SVG Version: 2.1.3 Build 182)  -->
  <defs>
    <style>
      .st0 {
        fill: #f7b527;
        stroke: #f7b527;
      }

      .st0, .st1 {
        stroke-linecap: round;
        stroke-linejoin: round;
        stroke-width: 2px;
      }

      .st1 {
        fill: #d4d6dd;
        stroke: #d4d6dd;
      }
    </style>
  </defs>
  <path class="st1" d="M10.82,2.3c-.29-.23-.44-.34-.6-.39-.14-.04-.29-.04-.44,0-.16.04-.31.16-.6.39L3.53,6.7c-.38.29-.57.44-.7.62-.12.16-.21.35-.26.54-.06.22-.06.46-.06.94v6.03c0,.93,0,1.4.18,1.76.16.31.41.57.73.73.36.18.82.18,1.76.18h1.67c.23,0,.35,0,.44-.05.08-.04.14-.1.18-.18.05-.09.05-.21.05-.44v-5.5c0-.47,0-.7.09-.88.08-.16.21-.28.36-.36.18-.09.41-.09.88-.09h2.33c.47,0,.7,0,.88.09.16.08.28.21.36.36.09.18.09.41.09.88v5.5c0,.23,0,.35.05.44.04.08.1.14.18.18.09.05.21.05.44.05h1.67c.93,0,1.4,0,1.76-.18.31-.16.57-.41.73-.73.18-.36.18-.82.18-1.76v-6.03c0-.48,0-.72-.06-.94-.05-.2-.14-.38-.26-.54-.14-.18-.32-.33-.7-.62l-5.65-4.4Z"/>
  <path class="st0" d="M10.82,2.3c-.29-.23-.44-.34-.6-.39-.14-.04-.29-.04-.44,0-.16.04-.31.16-.6.39L3.53,6.7c-.38.29-.57.44-.7.62-.12.16-.21.35-.26.54-.06.22-.06.46-.06.94v6.03c0,.93,0,1.4.18,1.76.16.31.41.57.73.73.36.18.82.18,1.76.18h1.67c.23,0,.35,0,.44-.05.08-.04.14-.1.18-.18.05-.09.05-.21.05-.44v-5.5c0-.47,0-.7.09-.88.08-.16.21-.28.36-.36.18-.09.41-.09.88-.09h2.33c.47,0,.7,0,.88.09.16.08.28.21.36.36.09.18.09.41.09.88v5.5c0,.23,0,.35.05.44.04.08.1.14.18.18.09.05.21.05.44.05h1.67c.93,0,1.4,0,1.76-.18.31-.16.57-.41.73-.73.18-.36.18-.82.18-1.76v-6.03c0-.48,0-.72-.06-.94-.05-.2-.14-.38-.26-.54-.14-.18-.32-.33-.7-.62l-5.65-4.4Z"/>
</svg>
